;FLAVOR:Marlin
;TIME:8563
;Filament used: 108.721m
;Layer height: 5
;MINX:11.186
;MINY:13.248
;MINZ:0.3
;MAXX:188.814
;MAXY:186.753
;MAXZ:140.3
;TARGET_MACHINE.NAME:Unknown
;Generated with Cura_SteamEngine 5.5.0
M104 S200
M105
M109 S200
M82 ;absolute extrusion mode
G28 ;Home
G1 Z15.0 F6000 ;Move the platform down 15mm
;Prime the extruder
G92 E0
G1 F200 E3
G92 E0
G92 E0
G92 E0
G1 F1500 E-6.5
;LAYER_COUNT:29
;LAYER:0
M107
G0 F3600 X43.317 Y31.818 Z0.3
;TYPE:SKIRT
G1 F1500 E0
G1 F1800 X44.94 Y30.262 E0.04229
G1 X47.188 Y29.124 E0.08969
G1 X49.151 Y28.906 E0.12684
G1 X50.761 Y28.913 E0.15713
G1 X52.489 Y29.388 E0.19084
G1 X53.52 Y29.627 E0.21074
G1 X54.697 Y29.804 E0.23313
G1 X55.558 Y29.898 E0.24943
G1 X56.062 Y29.934 E0.25893
G1 X56.989 Y29.966 E0.27638
G1 X57.681 Y29.957 E0.2894
G1 X58.317 Y29.919 E0.30138
G1 X59.289 Y29.835 E0.31973
G1 X60.216 Y29.717 E0.33731
G1 X61.475 Y29.455 E0.3615
G1 X62.148 Y29.286 E0.37455
G1 X62.883 Y29.073 E0.38895
G1 X63.363 Y28.913 E0.39847
G1 X64.246 Y28.578 E0.41623
G1 X64.817 Y28.335 E0.4279
G1 X65.599 Y27.965 E0.44418
G1 X66.146 Y27.677 E0.45581
G1 X66.992 Y27.196 E0.47411
G1 X67.471 Y26.898 E0.48472
G1 X68.16 Y26.427 E0.50042
G1 X68.648 Y26.064 E0.51186
G1 X69.35 Y25.499 E0.52881
G1 X69.859 Y25.058 E0.54148
G1 X70.458 Y24.493 E0.55697
G1 X71.022 Y23.92 E0.5721
G1 X71.422 Y23.478 E0.58331
G1 X71.973 Y22.823 E0.59941
G1 X72.303 Y22.398 E0.60953
G1 X72.803 Y21.697 E0.62573
G1 X73.247 Y21.013 E0.64107
G1 X73.602 Y20.416 E0.65413
G1 X73.989 Y19.708 E0.66931
G1 X74.347 Y18.991 E0.68438
G1 X74.624 Y18.371 E0.69716
G1 X75.034 Y17.363 E0.71763
G1 X76.491 Y15.333 E0.76463
G1 X78.567 Y13.977 E0.81127
G1 X79.354 Y13.622 E0.82751
G1 X81.191 Y13.251 E0.86277
G1 X82.761 Y13.253 E0.8923
G1 X84.741 Y13.668 E0.93035
G1 X86.581 Y14.679 E0.96985
G1 X87.776 Y15.73 E0.99978
G1 X88.354 Y16.192 E1.0137
G1 X89.004 Y16.674 E1.02892
G1 X89.646 Y17.109 E1.04351
G1 X90.208 Y17.459 E1.05596
G1 X90.902 Y17.855 E1.07099
G1 X91.523 Y18.179 E1.08417
G1 X92.596 Y18.685 E1.10648
G1 X93.471 Y19.019 E1.1241
G1 X94.317 Y19.299 E1.14086
G1 X95.155 Y19.547 E1.1573
G1 X95.699 Y19.679 E1.16783
G1 X96.495 Y19.845 E1.18313
G1 X97.32 Y19.983 E1.19886
G1 X97.847 Y20.05 E1.20886
G1 X98.721 Y20.125 E1.22536
G1 X99.595 Y20.169 E1.24182
G1 X100.135 Y20.178 E1.25198
G1 X101.064 Y20.145 E1.26946
G1 X101.567 Y20.109 E1.27895
G1 X102.428 Y20.015 E1.29524
G1 X103.554 Y19.847 E1.31666
G1 X105.013 Y19.506 E1.34484
G1 X106.456 Y19.053 E1.37329
G1 X107.386 Y18.678 E1.39215
G1 X108.23 Y18.299 E1.40956
G1 X108.775 Y18.026 E1.42102
G1 X109.558 Y17.596 E1.43783
G1 X110.113 Y17.265 E1.44998
G1 X110.833 Y16.792 E1.46619
G1 X111.406 Y16.38 E1.47946
G1 X112.009 Y15.911 E1.49383
G1 X113.666 Y14.505 E1.53471
G1 X115.409 Y13.654 E1.57119
G1 X117.136 Y13.248 E1.60457
G1 X119.151 Y13.252 E1.64247
G1 X120.163 Y13.506 E1.6621
G1 X121.903 Y14.208 E1.69739
G1 X123.694 Y15.593 E1.73998
G1 X124.176 Y16.172 E1.75415
G1 X125.135 Y17.804 E1.78976
G1 X125.608 Y18.889 E1.81202
G1 X125.827 Y19.349 E1.8216
G1 X126.259 Y20.168 E1.83902
G1 X126.641 Y20.835 E1.85348
G1 X127.026 Y21.445 E1.86705
G1 X127.375 Y21.957 E1.8787
G1 X127.803 Y22.529 E1.89214
G1 X128.416 Y23.286 E1.91047
G1 X128.751 Y23.67 E1.92005
G1 X129.414 Y24.368 E1.93816
G1 X129.889 Y24.829 E1.95061
G1 X130.522 Y25.398 E1.96662
G1 X131.011 Y25.807 E1.97861
G1 X131.588 Y26.246 E1.99225
G1 X132.122 Y26.619 E2.0045
G1 X133.176 Y27.303 E2.02814
G1 X134.275 Y27.899 E2.05166
G1 X134.917 Y28.215 E2.06512
G1 X135.57 Y28.507 E2.07857
G1 X136.104 Y28.72 E2.08939
G1 X136.919 Y29.005 E2.10563
G1 X137.509 Y29.184 E2.11723
G1 X138.483 Y29.443 E2.13618
G1 X139.025 Y29.567 E2.14664
G1 X139.841 Y29.715 E2.16224
G1 X140.569 Y29.822 E2.17608
G1 X141.636 Y29.933 E2.19626
G1 X142.812 Y29.967 E2.21839
G1 X143.497 Y29.952 E2.23128
G1 X144.344 Y29.91 E2.24723
G1 X144.884 Y29.856 E2.25744
G1 X146.171 Y29.687 E2.28186
G1 X147.101 Y29.488 E2.29975
G1 X148.091 Y29.239 E2.31895
G1 X149.018 Y28.973 E2.33709
G1 X151.505 Y28.834 E2.38395
G1 X153.985 Y29.618 E2.43287
G1 X155.638 Y30.785 E2.47093
G1 X156.466 Y31.571 E2.49241
G1 X157.789 Y33.598 E2.53794
G1 X158.346 Y36.254 E2.58899
G1 X158.263 Y38.129 E2.62429
G1 X158.26 Y38.66 E2.63428
G1 X158.281 Y39.296 E2.64625
G1 X158.349 Y40.175 E2.66284
G1 X158.436 Y40.959 E2.67767
G1 X158.527 Y41.541 E2.68875
G1 X158.689 Y42.386 E2.70494
G1 X158.868 Y43.157 E2.71983
G1 X159.023 Y43.714 E2.7307
G1 X159.251 Y44.429 E2.74482
G1 X159.591 Y45.359 E2.76345
G1 X159.789 Y45.846 E2.77334
G1 X160.11 Y46.552 E2.78792
G1 X160.648 Y47.614 E2.81032
G1 X161.244 Y48.593 E2.83188
G1 X161.61 Y49.148 E2.84438
G1 X162.075 Y49.795 E2.85937
G1 X162.588 Y50.46 E2.87517
G1 X162.966 Y50.904 E2.88614
G1 X163.449 Y51.432 E2.8996
G1 X163.964 Y51.948 E2.91331
G1 X164.664 Y52.6 E2.93131
G1 X165.184 Y53.045 E2.94418
G1 X165.724 Y53.48 E2.95722
G1 X166.362 Y53.948 E2.97211
G1 X166.898 Y54.305 E2.98422
G1 X167.674 Y54.782 E3.00136
G1 X168.301 Y55.135 E3.01489
G1 X168.941 Y55.463 E3.02842
G1 X169.655 Y55.794 E3.04322
G1 X170.256 Y56.045 E3.05547
G1 X171.021 Y56.331 E3.07084
G1 X171.656 Y56.54 E3.08341
G1 X172.448 Y56.762 E3.09888
G1 X173.266 Y56.961 E3.11472
G1 X175.267 Y57.399 E3.15325
G1 X176.747 Y57.916 E3.18274
G1 X178.701 Y59.475 E3.22976
G1 X179.845 Y61.106 E3.26724
G1 X180.31 Y62.064 E3.28727
G1 X180.795 Y64.083 E3.32633
G1 X180.731 Y65.879 E3.36013
G1 X180.234 Y67.856 E3.39848
G1 X179.381 Y69.449 E3.43247
G1 X179.044 Y70.143 E3.44698
G1 X178.828 Y70.642 E3.45721
G1 X178.465 Y71.576 E3.47606
G1 X178.239 Y72.23 E3.48907
G1 X177.954 Y73.182 E3.50777
G1 X177.678 Y74.453 E3.53223
G1 X177.554 Y75.167 E3.54586
G1 X177.449 Y75.931 E3.56037
G1 X177.388 Y76.614 E3.57327
G1 X177.362 Y77.138 E3.58314
G1 X177.341 Y78.074 E3.60075
G1 X177.362 Y78.855 E3.61545
G1 X177.389 Y79.4 E3.62571
G1 X177.451 Y80.089 E3.63872
G1 X177.556 Y80.842 E3.65302
G1 X177.685 Y81.579 E3.6671
G1 X177.894 Y82.536 E3.68552
G1 X178.04 Y83.111 E3.69668
G1 X178.228 Y83.742 E3.70907
G1 X178.488 Y84.493 E3.72402
G1 X178.929 Y85.623 E3.74683
G1 X179.571 Y86.952 E3.7746
G1 X180.179 Y87.985 E3.79715
G1 X180.556 Y88.58 E3.8104
G1 X180.911 Y89.09 E3.82208
G1 X181.486 Y89.849 E3.84
G1 X181.848 Y90.29 E3.85073
G1 X182.622 Y91.166 E3.87272
G1 X183.491 Y91.998 E3.89535
G1 X184.06 Y92.503 E3.90966
G1 X184.542 Y92.899 E3.92139
G1 X185.232 Y93.425 E3.93771
G1 X186.321 Y94.197 E3.96282
G1 X187.84 Y96.076 E4.00827
G1 X188.735 Y98.479 E4.05651
G1 X188.814 Y100.629 E4.09698
G1 X188.419 Y102.512 E4.13317
G1 X187.589 Y104.293 E4.17013
G1 X186.188 Y105.882 E4.20998
G1 X184.874 Y106.84 E4.24057
G1 X184.225 Y107.358 E4.25619
G1 X183.664 Y107.843 E4.27014
G1 X183.104 Y108.366 E4.28455
G1 X182.551 Y108.923 E4.29931
G1 X182.148 Y109.359 E4.31048
G1 X181.594 Y110.015 E4.32663
G1 X181.178 Y110.549 E4.33937
G1 X180.689 Y111.229 E4.35512
G1 X180.323 Y111.783 E4.36761
G1 X179.852 Y112.557 E4.38466
G1 X179.378 Y113.414 E4.40308
G1 X178.878 Y114.511 E4.42575
G1 X178.594 Y115.209 E4.43993
G1 X178.395 Y115.753 E4.45083
G1 X178.15 Y116.52 E4.46597
G1 X177.936 Y117.294 E4.48108
G1 X177.77 Y118.01 E4.4949
G1 X177.606 Y118.862 E4.51122
G1 X177.514 Y119.45 E4.52242
G1 X177.433 Y120.173 E4.5361
G1 X177.364 Y121.073 E4.55308
G1 X177.339 Y122.031 E4.57111
G1 X177.375 Y123.035 E4.59001
G1 X177.48 Y124.325 E4.61435
G1 X177.717 Y125.778 E4.64205
G1 X177.939 Y126.709 E4.66005
G1 X178.181 Y127.56 E4.67669
G1 X178.422 Y128.304 E4.6914
G1 X178.616 Y128.833 E4.702
G1 X179.002 Y129.753 E4.72077
G1 X179.236 Y130.259 E4.73126
G1 X180.274 Y132.271 E4.77384
G1 X180.856 Y134.692 E4.82068
G1 X180.541 Y137.254 E4.86924
G1 X180.28 Y137.991 E4.88394
G1 X179.426 Y139.547 E4.91733
G1 X178.431 Y140.737 E4.94651
G1 X176.91 Y141.943 E4.98302
G1 X175.036 Y142.719 E5.02118
G1 X173.322 Y143.03 E5.05394
G1 X172.425 Y143.225 E5.07121
G1 X171.219 Y143.602 E5.09498
G1 X170.727 Y143.776 E5.1048
G1 X169.766 Y144.158 E5.12425
G1 X169.183 Y144.417 E5.13625
G1 X168.66 Y144.677 E5.14724
G1 X167.789 Y145.148 E5.16586
G1 X167.282 Y145.448 E5.17694
G1 X166.521 Y145.938 E5.19397
G1 X166.105 Y146.231 E5.20354
G1 X165.415 Y146.762 E5.21992
G1 X164.839 Y147.239 E5.23399
G1 X164.359 Y147.668 E5.24609
G1 X163.707 Y148.305 E5.26324
G1 X163.188 Y148.851 E5.27741
G1 X162.801 Y149.295 E5.28849
G1 X162.227 Y150.003 E5.30564
G1 X161.795 Y150.577 E5.31915
G1 X161.354 Y151.225 E5.33389
G1 X161.076 Y151.671 E5.34378
G1 X160.574 Y152.543 E5.36271
G1 X160.213 Y153.228 E5.37727
G1 X159.934 Y153.815 E5.3895
G1 X159.679 Y154.409 E5.40166
G1 X159.422 Y155.068 E5.41496
G1 X159.179 Y155.798 E5.42943
G1 X158.922 Y156.669 E5.44652
G1 X158.729 Y157.431 E5.4613
G1 X158.567 Y158.182 E5.47575
G1 X158.455 Y158.854 E5.48857
G1 X158.372 Y159.479 E5.50043
G1 X158.305 Y160.275 E5.51546
G1 X158.271 Y160.981 E5.52875
G1 X158.257 Y161.692 E5.54213
G1 X158.282 Y162.508 E5.55748
G1 X158.337 Y163.608 E5.5782
G1 X158.012 Y165.653 E5.61715
G1 X156.898 Y167.97 E5.66551
G1 X155.069 Y169.739 E5.71338
G1 X152.794 Y170.881 E5.76126
G1 X150.875 Y171.094 E5.79758
G1 X149.239 Y171.079 E5.82835
G1 X147.582 Y170.628 E5.86066
G1 X146.479 Y170.373 E5.88195
G1 X145.301 Y170.196 E5.90436
G1 X144.443 Y170.102 E5.9206
G1 X143.939 Y170.066 E5.9301
G1 X143.011 Y170.034 E5.94757
G1 X142.319 Y170.043 E5.96058
G1 X141.683 Y170.081 E5.97257
G1 X140.711 Y170.165 E5.99092
G1 X139.784 Y170.283 E6.0085
G1 X138.519 Y170.546 E6.0328
G1 X137.861 Y170.711 E6.04556
G1 X136.872 Y170.998 E6.06494
G1 X135.81 Y171.401 E6.0863
G1 X135.163 Y171.676 E6.09953
G1 X134.422 Y172.025 E6.11493
G1 X133.889 Y172.302 E6.12623
G1 X132.785 Y172.931 E6.15013
G1 X131.977 Y173.479 E6.1685
G1 X130.994 Y174.206 E6.1915
G1 X130.033 Y175.042 E6.21546
G1 X129.564 Y175.483 E6.22757
G1 X128.99 Y176.067 E6.24297
G1 X128.587 Y176.512 E6.25426
G1 X128.055 Y177.144 E6.2698
G1 X127.66 Y177.652 E6.28191
G1 X127.223 Y178.264 E6.29605
G1 X126.806 Y178.902 E6.31039
G1 X126.395 Y179.591 E6.32548
G1 X126.015 Y180.283 E6.34033
G1 X125.64 Y181.034 E6.35612
G1 X125.364 Y181.65 E6.36882
G1 X124.961 Y182.634 E6.38882
G1 X123.511 Y184.666 E6.43578
G1 X121.433 Y186.023 E6.48246
G1 X120.646 Y186.378 E6.4987
G1 X118.809 Y186.749 E6.53395
G1 X117.229 Y186.747 E6.56368
G1 X115.277 Y186.338 E6.60119
G1 X113.413 Y185.311 E6.64122
G1 X112.274 Y184.317 E6.66966
G1 X111.588 Y183.769 E6.68618
G1 X110.9 Y183.261 E6.70226
G1 X110.331 Y182.875 E6.7152
G1 X109.883 Y182.597 E6.72511
G1 X108.974 Y182.079 E6.74479
G1 X108.384 Y181.772 E6.75731
G1 X107.655 Y181.429 E6.77246
G1 X107.187 Y181.231 E6.78202
G1 X106.539 Y180.984 E6.79506
G1 X105.544 Y180.653 E6.81479
G1 X104.964 Y180.483 E6.82616
G1 X104.261 Y180.311 E6.83977
G1 X103.456 Y180.144 E6.85524
G1 X102.736 Y180.023 E6.86897
G1 X102.178 Y179.952 E6.87955
G1 X101.268 Y179.873 E6.89673
G1 X100.419 Y179.831 E6.91272
G1 X99.865 Y179.822 E6.92315
G1 X98.936 Y179.855 E6.94063
G1 X98.432 Y179.891 E6.95014
G1 X97.571 Y179.985 E6.96643
G1 X96.448 Y180.154 E6.98779
G1 X95.222 Y180.438 E7.01146
G1 X94.733 Y180.569 E7.02099
G1 X93.582 Y180.93 E7.04368
G1 X92.637 Y181.313 E7.06286
G1 X91.747 Y181.715 E7.08123
G1 X91.21 Y181.98 E7.09249
G1 X90.434 Y182.406 E7.10914
G1 X90 Y182.666 E7.11866
G1 X89.18 Y183.203 E7.1371
G1 X88.663 Y183.575 E7.14908
G1 X87.951 Y184.13 E7.16606
G1 X87.444 Y184.558 E7.17854
G1 X86.484 Y185.426 E7.20289
G1 X84.735 Y186.287 E7.23956
G1 X83.015 Y186.753 E7.27308
G1 X81.037 Y186.729 E7.31029
G1 X79.983 Y186.555 E7.33038
G1 X78.101 Y185.789 E7.3686
G1 X76.262 Y184.373 E7.41226
G1 X75.931 Y184 E7.42164
G1 X74.822 Y182.111 E7.46285
G1 X74.425 Y181.187 E7.48176
G1 X74.04 Y180.386 E7.49848
G1 X73.754 Y179.851 E7.50989
G1 X73.385 Y179.209 E7.52382
G1 X72.916 Y178.466 E7.54035
G1 X72.63 Y178.051 E7.54983
G1 X72.184 Y177.455 E7.56383
G1 X71.402 Y176.491 E7.58718
G1 X70.526 Y175.572 E7.61106
G1 X70.088 Y175.147 E7.62254
G1 X69.533 Y174.653 E7.63652
G1 X68.944 Y174.164 E7.65092
G1 X68.421 Y173.761 E7.66334
G1 X67.736 Y173.278 E7.67911
G1 X67.166 Y172.909 E7.69188
G1 X66.61 Y172.581 E7.70402
G1 X65.698 Y172.087 E7.72353
G1 X65.08 Y171.783 E7.73649
G1 X64.429 Y171.492 E7.7499
G1 X63.919 Y171.288 E7.76023
G1 X63.142 Y171.016 E7.77572
G1 X62.417 Y170.795 E7.78998
G1 X61.519 Y170.557 E7.80745
G1 X60.942 Y170.425 E7.81859
G1 X60.185 Y170.287 E7.83306
G1 X59.434 Y170.178 E7.84733
G1 X58.363 Y170.067 E7.86759
G1 X57.187 Y170.033 E7.88972
G1 X56.503 Y170.048 E7.90259
G1 X55.656 Y170.09 E7.91854
G1 X55.116 Y170.144 E7.92875
G1 X54.105 Y170.276 E7.94793
G1 X53.535 Y170.371 E7.9588
G1 X52.812 Y170.525 E7.9727
G1 X50.585 Y171.104 E8.01599
G1 X48.662 Y171.103 E8.05216
G1 X47.024 Y170.779 E8.08357
G1 X45.255 Y169.931 E8.12047
G1 X44.375 Y169.271 E8.14116
G1 X43.024 Y167.772 E8.17912
G1 X41.998 Y165.724 E8.22221
G1 X41.875 Y165.288 E8.23073
G1 X41.687 Y162.993 E8.27404
G1 X41.746 Y161.656 E8.29922
G1 X41.7 Y160.409 E8.32269
G1 X41.645 Y159.709 E8.3359
G1 X41.575 Y159.092 E8.34758
G1 X41.461 Y158.372 E8.36129
G1 X41.311 Y157.597 E8.37614
G1 X41.157 Y156.937 E8.38889
G1 X40.965 Y156.257 E8.40218
G1 X40.729 Y155.524 E8.41667
G1 X40.313 Y154.389 E8.43941
G1 X39.787 Y153.242 E8.46314
G1 X39.339 Y152.361 E8.48173
G1 X38.75 Y151.394 E8.50303
G1 X38.356 Y150.799 E8.51646
G1 X37.858 Y150.113 E8.5324
G1 X37.428 Y149.566 E8.54549
G1 X36.909 Y148.958 E8.56053
G1 X36.551 Y148.568 E8.57048
G1 X36.015 Y148.031 E8.58476
G1 X35.456 Y147.51 E8.59913
G1 X34.709 Y146.867 E8.61767
G1 X34.27 Y146.514 E8.62827
G1 X33.683 Y146.084 E8.64195
G1 X33.141 Y145.722 E8.65421
G1 X32.252 Y145.174 E8.67386
G1 X31.777 Y144.908 E8.6841
G1 X30.93 Y144.472 E8.70202
G1 X30.425 Y144.24 E8.71247
G1 X29.648 Y143.918 E8.72829
G1 X28.656 Y143.549 E8.7482
G1 X27.537 Y143.232 E8.77008
G1 X26.795 Y143.052 E8.78444
G1 X25.014 Y142.68 E8.81867
G1 X23.263 Y142.094 E8.8534
G1 X21.303 Y140.529 E8.90058
G1 X20.112 Y138.855 E8.93923
G1 X19.689 Y137.931 E8.95834
G1 X19.205 Y135.918 E8.99729
G1 X19.269 Y134.121 E9.03111
G1 X19.768 Y132.139 E9.06956
G1 X20.633 Y130.521 E9.10407
G1 X20.913 Y129.944 E9.11613
G1 X21.245 Y129.178 E9.13184
G1 X21.535 Y128.428 E9.14696
G1 X21.756 Y127.784 E9.15977
G1 X21.982 Y127.029 E9.17459
G1 X22.108 Y126.537 E9.18415
G1 X22.322 Y125.547 E9.2032
G1 X22.446 Y124.833 E9.21683
G1 X22.551 Y124.069 E9.23134
G1 X22.612 Y123.386 E9.24424
G1 X22.638 Y122.865 E9.25405
G1 X22.658 Y121.909 E9.27204
G1 X22.629 Y120.807 E9.29277
G1 X22.518 Y119.688 E9.31392
G1 X22.435 Y119.118 E9.32476
G1 X22.273 Y118.222 E9.34189
G1 X22.038 Y117.162 E9.36231
G1 X21.74 Y116.173 E9.38174
G1 X21.432 Y115.289 E9.39935
G1 X21.199 Y114.693 E9.41139
G1 X20.944 Y114.111 E9.42334
G1 X20.624 Y113.452 E9.43712
G1 X20.191 Y112.644 E9.45436
G1 X19.84 Y112.04 E9.4675
G1 X19.436 Y111.409 E9.4816
G1 X19.036 Y110.838 E9.49471
G1 X18.523 Y110.161 E9.51069
G1 X18.138 Y109.689 E9.52215
G1 X17.642 Y109.13 E9.53621
G1 X17.038 Y108.503 E9.55258
G1 X16.47 Y107.96 E9.56736
G1 X15.983 Y107.53 E9.57958
G1 X15.475 Y107.111 E9.59197
G1 X13.806 Y105.868 E9.63112
G1 X12.214 Y104.072 E9.67626
G1 X11.265 Y101.522 E9.72744
G1 X11.186 Y99.371 E9.76793
G1 X11.581 Y97.488 E9.80412
G1 X12.409 Y95.711 E9.841
G1 X13.816 Y94.115 E9.88102
G1 X15.196 Y93.107 E9.91317
G1 X15.736 Y92.676 E9.92616
G1 X16.325 Y92.167 E9.94081
G1 X16.902 Y91.628 E9.95566
G1 X17.449 Y91.077 E9.97026
G1 X17.852 Y90.641 E9.98143
G1 X18.41 Y89.982 E9.99768
G1 X18.836 Y89.434 E10.01073
G1 X19.302 Y88.785 E10.02576
G1 X19.685 Y88.204 E10.03885
G1 X20.148 Y87.443 E10.05561
G1 X20.448 Y86.899 E10.06729
G1 X20.8 Y86.203 E10.08196
G1 X21.117 Y85.505 E10.09638
G1 X21.385 Y84.844 E10.1098
G1 X21.61 Y84.231 E10.12208
G1 X21.85 Y83.48 E10.13691
G1 X22.064 Y82.706 E10.15202
G1 X22.23 Y81.99 E10.16585
G1 X22.394 Y81.138 E10.18217
G1 X22.486 Y80.55 E10.19336
G1 X22.567 Y79.827 E10.20705
G1 X22.636 Y78.927 E10.22403
G1 X22.661 Y77.965 E10.24213
G1 X22.606 Y76.68 E10.26632
G1 X22.523 Y75.69 E10.28501
G1 X22.34 Y74.556 E10.30662
G1 X22.203 Y73.892 E10.31937
G1 X22.021 Y73.144 E10.33385
G1 X21.793 Y72.348 E10.34943
G1 X21.616 Y71.807 E10.36013
G1 X21.302 Y70.964 E10.37706
G1 X21.085 Y70.45 E10.38755
G1 X20.659 Y69.535 E10.40654
G1 X20.334 Y68.9 E10.41995
